svg/300/sharp/vo2_max.svg

<svg xmlns="http://www.w3.org/2000/svg" width="48" height="48" viewBox="0 -960 960 960"><path d="M60.002-180.001V-570l275.922-219.307v-110.076h45.383v109.692L656.615-570.23v116.46h-45.384v-96.153L459-668.462v488.461h-44.384v-523.537l-56-46.462-56.001 46.462-.384 523.537H60.001Zm45.383-45.384h151.462l.385-443.077-151.847 119.923v323.154Zm421.999 45.384V-398.77h158.769v218.769H527.384Zm38.769-38.769h81.231v-141.231h-81.231v141.231Zm167.693 118.769v-133.23h129.692v-55.693H733.846v-38.769h168.46v133.23H772.614v55.693h129.692v38.769h-168.46Zm-552.23-346.923Zm353.999 0Z"/></svg>

<svg xmlns="http://www.w3.org/2000/svg" width="48" height="48" viewBox="0 -960 960 960"><path d="M60-180v-390l275.92-219.31v-110.07h45.39v109.69l275.3 219.46v116.46h-45.38v-96.15L459-668.46V-180h-44.38v-523.54l-56-46.46-56 46.46-.39 523.54H60Zm45.39-45.39h151.46l.38-443.07-151.84 119.92v323.15ZM527.38-180v-218.77h158.77V-180H527.38Zm38.77-38.77h81.23V-360h-81.23v141.23ZM733.85-100v-133.23h129.69v-55.69H733.85v-38.77h168.46v133.23h-129.7v55.69h129.7V-100H733.85ZM181.62-446.92Zm354 0Z"/></svg>
